X: 1
T: Lech lamidbar
O: Israel
M: 4/4
L: 1/8
S: Deborah Jones/Vancouver IFD 1982
Z: Seymour.Shlien:crc.doc.ca, modified by John Chambers <jc:trillian.mit.edu>
K: Em
"Em" B2 Be- ef e2 |"D" de dG "G" B2 B2 | "Am" A2 A c2 B A2 | "B7" Bc BA GF "Em" E2 |
"Em" B2 Be- ef e2 |"D" de dG "G" B2 B2 | "Am" A2 AB cA "D" d2 | z d2 c "B7" BA GF |
|: "Em" G2 G2 "A" E4 | "B7" F A2 F "Em" E2 E2 | E2 E2 "Am" FG A2 | "B7" F G2 F "Em" E2 E2 :|
"G" B2 B2 GA B2 |"D7" A c2 A "G" B2 BA | "Em" B2 B2 EF G2 | "Am"z A2 F "B7"A2 GF |
|: "Em" G2 G2 "A" E4 | "B7" F A2 F "Em" E2 E2 | E2 E2 "Am" FG A2 | "B7" F G2 F "Em" E2 E2 :|

%%sep 1 1 500

